images/mTSLA.svg

<svg height="250" viewBox="0 0 250 250" width="250" xmlns="http://www.w3.org/2000/svg"><g fill="#e31837"><path d="m126.886719 226.109375 28.003906-157.5c26.695313 0 35.113281 2.929687 36.328125 14.875 0 0 17.90625-6.675781 26.941406-20.234375-35.246094-16.332031-70.65625-17.070312-70.65625-17.070312l-20.664062 25.167968.046875-.003906-20.664063-25.167969s-35.414062.738281-70.652344 17.070313c9.023438 13.558594 26.9375 20.234375 26.9375 20.234375 1.222657-11.945313 9.632813-14.875 36.148438-14.894531z"/><path d="m126.875 38.910156c28.488281-.21875 61.097656 4.40625 94.480469 18.957032 4.460937-8.03125 5.609375-11.578126 5.609375-11.578126-36.492188-14.4375-70.664063-19.378906-100.09375-19.503906-29.425782.125-63.597656 5.066406-100.085938 19.503906 0 0 1.628906 4.371094 5.605469 11.578126 33.375-14.550782 65.992187-19.175782 94.480469-18.957032z"/></g></svg>

<svg xmlns="http://www.w3.org/2000/svg" xmlns:xlink="http://www.w3.org/1999/xlink" width="250px" height="250px" viewBox="0 0 250 250" version="1.1">
<g id="surface1">
<path style=" stroke:none;fill-rule:nonzero;fill:rgb(89.019608%,9.411765%,21.568628%);fill-opacity:1;" d="M 126.886719 226.109375 L 154.890625 68.609375 C 181.585938 68.609375 190.003906 71.539062 191.21875 83.484375 C 191.21875 83.484375 209.125 76.808594 218.160156 63.25 C 182.914062 46.917969 147.503906 46.179688 147.503906 46.179688 L 126.839844 71.347656 L 126.886719 71.34375 L 106.222656 46.175781 C 106.222656 46.175781 70.808594 46.914062 35.570312 63.246094 C 44.59375 76.804688 62.507812 83.480469 62.507812 83.480469 C 63.730469 71.535156 72.140625 68.605469 98.65625 68.585938 L 126.886719 226.109375 "/>
<path style=" stroke:none;fill-rule:nonzero;fill:rgb(89.019608%,9.411765%,21.568628%);fill-opacity:1;" d="M 126.875 38.910156 C 155.363281 38.691406 187.972656 43.316406 221.355469 57.867188 C 225.816406 49.835938 226.964844 46.289062 226.964844 46.289062 C 190.472656 31.851562 156.300781 26.910156 126.871094 26.785156 C 97.445312 26.910156 63.273438 31.851562 26.785156 46.289062 C 26.785156 46.289062 28.414062 50.660156 32.390625 57.867188 C 65.765625 43.316406 98.382812 38.691406 126.871094 38.910156 L 126.875 38.910156 "/>
</g>
</svg>
